X:391
T:Donald MacLellan of Rothesay 
C:Joe Buchanan's Scottish Tome - Page 346.0
I:346 0
C:Pipe Major D> MacLeod
R:March
Z:Carl Allison
L:1/16
M:2/4
K:D
a2 | "Bm" B2B2 "F#m" c2B<A | "Bm" B2c<e "E7" f2e>f | "A" a2a2 "F#m" f2a<e | "E7" e2f>e "A" c2B<A |
"Bm" B2B2 "F#m" c2B<A | "Bm" B2c<e "E7" f2e>f | "A" f>ef<a "F#m" f2a>e | "Bm" f2B2 "Bm" "F#m" B2 :|
c<d | "Bm" f2e>f "F#m" a2a2 | "Bm" f>ef<a "E7" f2e>f | "A" a>gf<a "E7" f2a<e | "A" e2f>e "F#m" c2B<A |
"Bm" f2e>f "F#m" a2a2 | "Bm" f>ef<a "E7" f2e>f | "A" a>gf<a "F#m" f2a<e | "Bm" f2"Em"B2 "Bm""F#m" B2 :|
"Bm" B2c<A "F#m" c2B>c | "Bm" f>ef<a "E7" f2e>a | "A" A2c<A "E7" e>Ac<A | "A" c<eA>c "A" f>ec<A |
"Bm" B2c<A "F#m" c2B>c | "Bm" f>ef<a "E7" f2e>f | "A" a>gf<a "F#m" f2a>e | "Bm" f2B2 "F7" B2 :|
a2 | "Bm" f2f2 "F#m" a2a2 | "Bm" f>ef<a "E7" f2e<c | "Bm" e2e2 "E7" f2f2 | "A" e2c<B "F#m" A>Bc<e |
"Bm" f2f2 "F#m" a2a2 | "Bm" f>ef<a "E7" f2e<f | "A" a>gf<a "F#m" f2a<e | "Bm" f2B2 "Bm" B2e2 |
"Bm" f2f2 "F#m" a2a2 | "Bm" f>ef<a "E7" f2e<c | "A" e2e2 "E7" f2f2 | "A" e2c<B "F#m" ABce |
"Bm" f<Bc>e "F#m" c2B<A | "Bm" c<Bc>e "E7" f2e<f | "A" a>gf<a "F#m" f2a<e | "Bm" f2B2 "Bm" B2 |]

